X:1
T:25 Lieder
T:Die Wachtel
T:24. Die Wachtel 
T:Corona Elisabeth Wilhelmine Schröter
T:Anonymous
T:25 Lieder
T:NOTES TO TRANSCRIBER: 1. Full German text for the extra lyric verses of Die Wachtel is available on Lieder.net: https://www.lieder.net/lieder/get_text.html?TextId=4614 2. Please transcribe into the Soprano clef, as published in the original IMSLP edition: the reviewer will convert staves to Treble clef before the score is published to the Lieder Corpus. 3. System breaks have been changed deliberately, to achieve a more balanced layout and to avoid split bars/measures. 
T:Creative Commons copyright waiver (CC0 1.0 Universal)
T:Creative Commons copyright waiver (CC0 1.0 Universal)
C:Corona Elisabeth Wilhelmine Schröter
Z:Anonymous
Z:Creative Commons copyright waiver (CC0 1.0 Universal)
L:1/8
Q:1/4=114
M:6/8
K:F
V:1 alto1 nm="Singstimme\nVoice"
V:1
"^In mässiger Bewegung" c c c c3/2 d/ B | A3/2 B/ G A2 z | z2 z c3/2 A/ c | c3/2 A/ c A B c | %4
w: Hört, wie die Wach- tel im|Wal- de dort schlägt:|woll- te Gott!|woll- te Gott! kam nur ein|
 (d>cB A>G) A | G2 z z2 z | G3 A3 | B3- B G E |{G} (FEF GE) C | C2 z z z C | F3 F3 | (dcB) B2 A | %12
w: Schau- * * er, * sie|sagt;|fliegt von|ei- * nem zum|an- * * * * dern|Feld, und|uns den|Wachs- * * tum der|
 (G3{F} ED) E | F2 z z2 z | F3 A2 =B | c3 =B3 | c3 f d =B | c3- c2 z | z2 z B3/2 G/ B | %19
w: Früch- * * te|meidt;|auch uns bei|Son- nen-|schein freund- lich er-|mahnt: *|dan- ket Gott!|
 B3/2 G/ B A>B c | d>c B A>B G | F2 z z2 z |] %22
w: dan- ket Gott! für * die|schö- * nen Frücht' * im|Land.|

